X: 121
T: Never Love Thee More
M:6/8
L:1/8
Q:160
S:Playford
O:Manuscript
A:English
K:G
D>ED G2 A|B>cB A2 G|d B2 A2 G|G3 G2 G|D>ED G2 A| B>cB A2 G|d B2 c2 d| e3 e2 e| d B2 A2 G|c2d e>dc|dBc A2 G| E3 E2 E|D>ED G>AG|Bcd e>dc| dBc A2 G|G3 g2 z:|

